X:17
T:Stormy Along, John
M:C|
L:1/8
Q:1/4=3D110
K:D
(3DEF|\
G2G2 F2F2|E2E2 D2(3DEF|G2F2 E2B,2|D2 D4 D2|
E2E2 G2B,2|D2D2 G,3D|D2DD E2EE|E6 z2|
D4 F3E|DD3||
